!!!COM: Anonymous
!!!OTL: Ou beau chastel
!!!AGN: Song; Chanson
!!!SCT: Ano3232
!!!SCA: Ano3232
!!!SMS: Leuven Chansonnier
!!!folio: 63v-65r
!!!voices: 3
**kern	**text	**text	**text	**kern	**text	**text	**text	**kern	**text	**text	**text
*staff3	*staff3	*staff3	*staff3	*staff2	*staff2	*staff2	*staff2	*staff1	*staff1	*staff1	*staff1
*Ivox	*	*	*	*Ivox	*	*	*	*Ivox	*	*	*
*I"Contra	*	*	*	*I"Tenor	*	*	*	*I"Discantus	*	*	*
*I'C	*	*	*	*I'T	*	*	*	*I'D	*	*	*
*clefF4	*	*	*	*clefGv2	*	*	*	*clefG2	*	*	*
*k[b-]	*	*	*	*k[b-e-]	*	*	*	*k[b-]	*	*	*
*M2/1	*	*	*	*M2/1	*	*	*	*M2/1	*	*	*
*met(C|)	*	*	*	*met(C|)	*	*	*	*met(C|)	*	*	*
=1-	=1-	=1-	=1-	=1-	=1-	=1-	=1-	=1-	=1-	=1-	=1-
!	!	!	!	!	!	!	!	!LO:TX:Z=12:a:t=Form&colon; rondeau	!	!	!
0G	Ou	Pain-	A	1.g	Ou	Pain-	A	0r	.	.	.
.	.	.	.	4f	.	.	.	.	.	.	.
.	.	.	.	4e-	.	.	.	.	.	.	.
=2	=2	=2	=2	=2	=2	=2	=2	=2	=2	=2	=2
1B-	beau	-ne et	qui	1d	beau	-ne et	qui	0r	.	.	.
1B-	chas-	sous-	don-	1d	chas-	sous-	don-	.	.	.	.
=3	=3	=3	=3	=3	=3	=3	=3	=3	=3	=3	=3
1c	-tel	-si	-ner	1c	-tel	-si	-ner	0r	.	.	.
1c	est	-tris-	de	1c	est	tris-	de	.	.	.	.
=4	=4	=4	=4	=4	=4	=4	=4	=4	=4	=4	=4
1c	pri-	-tes-	ce	1e-	pri-	-tes-	ce	0r	.	.	.
1c	-son-	-se	cas	1e-	-son-	-se	cas	.	.	.	.
=5	=5	=5	=5	=5	=5	=5	=5	=5	=5	=5	=5
1.B-	-nier	et	cy	1.d	-nier	et	cy	0r	.	.	.
4A	.	.	.	4c	.	.	.	.	.	.	.
4G	.	.	.	4B-	.	.	.	.	.	.	.
=6	=6	=6	=6	=6	=6	=6	=6	=6	=6	=6	=6
1A	.	.	.	1c	.	.	.	0r	.	.	.
[1B-	mon	dou-	.	1B-	.	.	.	.	.	.	.
=7	=7	=7	=7	=7	=7	=7	=7	=7	=7	=7	=7
2B-]	.	.	.	0G	mon	dou-	l'er-	0r	.	.	.
2G	.	.	.	.	.	.	.	.	.	.	.
[1G	.	.	l'er-	.	.	.	.	.	.	.	.
=8	=8	=8	=8	=8	=8	=8	=8	=8	=8	=8	=8
2G]	.	.	.	0A	.	.	.	0r	.	.	.
2F#i	.	.	.	.	.	.	.	.	.	.	.
2F#i	.	.	.	.	.	.	.	.	.	.	.
2E	.	.	.	.	.	.	.	.	.	.	.
=9	=9	=9	=9	=9	=9	=9	=9	=9	=9	=9	=9
[0G	cueur,	-leur	-reur,	0G	cueur,	-leur,	-reur,	0g	Ou	Pain-	A
=10	=10	=10	=10	=10	=10	=10	=10	=10	=10	=10	=10
0G]	.	.	.	1r	.	.	.	1b-	beau	-ne et	qui
.	.	.	.	1g	est	tris-	ce	1b-	chas-	sous-	don-
=11	=11	=11	=11	=11	=11	=11	=11	=11	=11	=11	=11
!LO:TX:X=-30:Z=12:i:t=Ms. error in contra, mm. 11-16&colon; 3rd too high	!	!	!	!	!	!	!	!	!	!	!
1C	pri-	tris-	ce	1e-	pri-	-tes-	cas	1cc	-tel	-si	-ner
[1F	.	-tes-	cas	[1f	.	.	.	1cc	est	tris-	de
=12	=12	=12	=12	=12	=12	=12	=12	=12	=12	=12	=12
2F]	.	.	.	1f]	.	.	.	1cc	pri-	-tes-	ce
2D	.	.	.	.	.	.	.	.	.	.	.
1F	-son-	.	.	1a-i	-son-	.	.	1cc	-son-	-se	cas
=13	=13	=13	=13	=13	=13	=13	=13	=13	=13	=13	=13
1G	-nier	-se	cy	1.g	-nier	-se	cy	1.b-	-nier	et	cy
[1GG	.	et	.	.	.	.	.	.	.	.	.
.	.	.	.	4f	.	.	.	4a	.	.	.
.	.	.	.	4e-	.	.	.	4g	.	.	.
=14	=14	=14	=14	=14	=14	=14	=14	=14	=14	=14	=14
1GG]	.	.	.	1.d	.	.	.	1b-	.	.	.
[1D	mon	dou-	l'er-	.	.	.	.	[1a	mon	dou-	.
.	.	.	.	2e-	.	.	.	.	.	.	.
=15	=15	=15	=15	=15	=15	=15	=15	=15	=15	=15	=15
1D]	.	.	.	1f	.	et	.	2a]	.	.	.
.	.	.	.	.	.	.	.	2g	.	.	.
1E-i	.	.	.	1g	mon	dou-	l'er-	[1g	.	.	l'er-
=16	=16	=16	=16	=16	=16	=16	=16	=16	=16	=16	=16
1C	.	.	.	0c	cueur,	-leur,	-reur,	2g]	.	.	.
.	.	.	.	.	.	.	.	2a-i	.	.	.
1F	.	.	.	.	.	.	.	2g	.	.	.
.	.	.	.	.	.	.	.	4f	.	.	.
.	.	.	.	.	.	.	.	4e-i	.	.	.
=17	=17	=17	=17	=17	=17	=17	=17	=17	=17	=17	=17
0G	cueur	-leur	-reur	1r	.	.	.	0d	cueur,	-leur,	-reur,
.	.	.	.	1B-	mon	dou-	l'er-	.	.	.	.
=18	=18	=18	=18	=18	=18	=18	=18	=18	=18	=18	=18
0C	.	.	.	1.c	cueur	-leur	-reur	1e-i	mon	dou-	l'er-
.	.	.	.	.	.	.	.	[1g	cueur	-leur	-reur
.	.	.	.	4B-	.	.	.	.	.	.	.
.	.	.	.	4A	.	.	.	.	.	.	.
=19	=19	=19	=19	=19	=19	=19	=19	=19	=19	=19	=19
1r	.	.	.	0G	.	.	.	2g]	.	.	.
.	.	.	.	.	.	.	.	2f	.	.	.
1B-	De	Luy	Ne	.	.	.	.	1d	.	.	.
=20	=20	=20	=20	=20	=20	=20	=20	=20	=20	=20	=20
2c	cel-	sont	sca-	0g	De	Luy	Ne	0c	.	.	.
2B-	.	.	.	.	.	.	.	.	.	.	.
2A	-le ou	pro-	-roy-	.	.	.	.	.	.	.	.
2G	.	.	.	.	.	.	.	.	.	.	.
=21	=21	=21	=21	=21	=21	=21	=21	=21	=21	=21	=21
0F	mon-	-chains	-e	1a	cel-	sont	sca-	0r	.	.	.
.	.	.	.	1a	-le ou	pro-	-roy-	.	.	.	.
=22	=22	=22	=22	=22	=22	=22	=22	=22	=22	=22	=22
0C	-de	.	.	1.g	mon-	-chains	-e	0g	De	Luy	Ne
.	.	.	.	4f	.	.	.	.	.	.	.
.	.	.	.	4e-	.	.	.	.	.	.	.
=23	=23	=23	=23	=23	=23	=23	=23	=23	=23	=23	=23
1r	.	.	.	0f	.	.	.	1a	cel-	sont	sca-
1F	ou	a-	si	.	.	.	.	1a	-le ou	pro-	-roy-
=24	=24	=24	=24	=24	=24	=24	=24	=24	=24	=24	=24
0C	a	-vec	non	1.e-	.	.	si	1g	mon-	-chains	-e
.	.	.	.	.	.	.	.	[1cc	.	.	si
.	.	.	.	4d	.	.	.	.	.	.	.
.	.	.	.	4c	.	.	.	.	.	.	.
=25	=25	=25	=25	=25	=25	=25	=25	=25	=25	=25	=25
0G	plus	.	.	0d	.	.	.	2cc]	.	.	.
.	.	.	.	.	.	.	.	2a	.	.	.
.	.	.	.	.	.	.	.	1bni	.	.	.
=26	=26	=26	=26	=26	=26	=26	=26	=26	=26	=26	=26
0r	.	.	.	1c	-de ou	.	non	1.cc	-de ou	.	non
.	.	.	.	[1f	.	.	.	.	.	.	.
.	.	.	.	.	.	.	.	2b-i	.	.	.
=27	=27	=27	=27	=27	=27	=27	=27	=27	=27	=27	=27
0r	.	.	.	2f]	.	.	.	2a	.	.	.
.	.	.	.	2e-	.	.	.	2g	.	.	.
.	.	.	.	2d	.	.	.	[1f	.	.	.
.	.	.	.	2c	.	.	.	.	.	.	.
=28	=28	=28	=28	=28	=28	=28	=28	=28	=28	=28	=28
0r	.	.	.	1B-	.	.	.	2f]	.	.	.
.	.	.	.	.	.	.	.	2d	a	a-	a
.	.	.	.	1c	a	a-	a	1e-i	.	.	.
=29	=29	=29	=29	=29	=29	=29	=29	=29	=29	=29	=29
0r	.	.	.	1e-	plus	-vec	mon	1c	plus	-vec	mon
.	.	.	.	1f	.	.	.	1d	.	.	.
=30	=30	=30	=30	=30	=30	=30	=30	=30	=30	=30	=30
0r	.	.	.	1g	.	lar-	.	1e-i	.	lar-	.
.	.	.	.	[1a-i	.	.	.	[1f	.	.	.
=31	=31	=31	=31	=31	=31	=31	=31	=31	=31	=31	=31
1r	.	.	.	2a-]	.	.	.	2f]	.	.	.
.	.	.	.	4g	.	.	.	4e-i	.	.	.
.	.	.	.	4f	.	.	.	4d	.	.	.
1C	de	lar-	a	[1g	.	.	.	1c	.	-mes,	.
=32	=32	=32	=32	=32	=32	=32	=32	=32	=32	=32	=32
1E-i	doul-	.	mon	2g]	.	.	.	1g	de	lar-	mal-
.	.	.	.	2e-	.	.	.	.	.	.	.
1F	.	.	.	1d	.	.	.	2f	doul-	.	.
.	.	.	.	.	.	.	.	[2d	.	.	.
=33	=33	=33	=33	=33	=33	=33	=33	=33	=33	=33	=33
1G	.	.	.	1B-	de	.	.	2d]	.	.	.
.	.	.	.	.	.	.	.	2f	.	.	.
1C	.	-mes	.	1c	doul-	-mes	mal-	2e-i	.	.	.
.	.	.	.	.	.	.	.	4d	.	.	.
.	.	.	.	.	.	.	.	4c	.	.	.
=34	=34	=34	=34	=34	=34	=34	=34	=34	=34	=34	=34
1B-	.	et	mal-	1f	.	et	.	1d	-ceur,	-mes,	-heur,
2.G	.	.	.	1g	.	.	.	2B-	doul-	lar-	mal-
.	.	.	.	.	.	.	.	2e-i	.	.	.
4A	.	.	.	.	.	.	.	.	.	.	.
=35	=35	=35	=35	=35	=35	=35	=35	=35	=35	=35	=35
2B-	.	.	.	2f	.	.	.	2d	.	.	.
2c	.	.	.	2e-	.	.	.	1c	.	-mes	.
1G	.	.	.	1d	.	.	.	.	.	.	.
.	.	.	.	.	.	.	.	2Bni	.	et	.
=36	=36	=36	=36	=36	=36	=36	=36	=36	=36	=36	=36
0C	-ceur	pleur	-heur	[0c	-ceur	pleur	-heur	1.c	-ceur	pleur	-heur
.	.	.	.	.	.	.	.	2d	.	.	.
=37	=37	=37	=37	=37	=37	=37	=37	=37	=37	=37	=37
1r	.	.	.	0c]	.	.	.	1e-i	.	.	.
1C	Beaul-	Pour	Ou	.	.	.	.	1g	Beaul-	Pour	Ou
=38	=38	=38	=38	=38	=38	=38	=38	=38	=38	=38	=38
1.C	-te	bien	a	1r	.	.	.	1g	-te	bien	a
.	.	.	.	1c	Beaul-	Pour	Ou	1a	bon-	a-	For-
4BB-	bon-	a-	For-	.	.	.	.	.	.	.	.
4AA	.	.	.	.	.	.	.	.	.	.	.
=39	=39	=39	=39	=39	=39	=39	=39	=39	=39	=39	=39
0GG	-te	-mer	-tune	1B-	-te	bien	a	1.b-	-te	-mer	-tune
.	.	.	.	[1d	bon-	a-	For-	.	.	.	.
.	.	.	.	.	.	.	.	4a	.	.	.
.	.	.	.	.	.	.	.	4g	.	.	.
=40	=40	=40	=40	=40	=40	=40	=40	=40	=40	=40	=40
0r	.	.	.	1d]	.	.	.	1f	.	.	.
.	.	.	.	1B-	-te	-mer	-tune	1g	cour-	seuf-	qui
=41	=41	=41	=41	=41	=41	=41	=41	=41	=41	=41	=41
1r	.	.	.	1c	cour-	seuf-	.	1a	.	-fre	vieult
1G	cour-	seuf-	qui	1d	-toi-	-fre	qui	1b-	-toi-	.	.
=42	=42	=42	=42	=42	=42	=42	=42	=42	=42	=42	=42
1E-i	-toi-	-fre	vieult	1e-	-si-	las	vieult	1cc	-si-	las	qu'il
[1F	-si-	las	qu'il	[1c	.	tout	qu'il	2b-	.	tout	.
.	.	.	.	.	.	.	.	[2a	.	.	.
=43	=43	=43	=43	=43	=43	=43	=43	=43	=43	=43	=43
1F]	.	.	.	1c]	.	.	.	2a]	.	.	.
.	.	.	.	.	.	.	.	2g	.	.	.
1G	.	tout	.	1B-	.	.	.	[1g	.	.	.
=44	=44	=44	=44	=44	=44	=44	=44	=44	=44	=44	=44
0D	.	.	.	0A	.	.	.	2g]	.	.	.
.	.	.	.	.	.	.	.	2f#i	.	.	.
.	.	.	.	.	.	.	.	2f#i	.	.	.
.	.	.	.	.	.	.	.	2e	.	.	.
=45	=45	=45	=45	=45	=45	=45	=45	=45	=45	=45	=45
1.E-i	-e	.	soit	1G	-e	.	soit	1g	-e	.	soit
.	.	.	.	[1c	aus-	ce-	ain-	2c	aus-	ce-	ain-
2C	.	.	.	.	.	.	.	[2e-i	.	.	.
=46	=46	=46	=46	=46	=46	=46	=46	=46	=46	=46	=46
0C	aus-	ce-	ain-	2c]	.	.	.	4e-i]	.	.	.
.	.	.	.	.	.	.	.	4d	.	.	.
.	.	.	.	2d	.	.	.	1c	.	.	.
.	.	.	.	2e-	.	.	.	.	.	.	.
.	.	.	.	2f	.	.	.	2A	.	.	.
=47	=47	=47	=47	=47	=47	=47	=47	=47	=47	=47	=47
0GG; 0G;	-si	-cy&	-sy	0d;	-si	-cy&	-sy	0Bn;	-si	-cy&	-sy
=48	=48	=48	=48	=48	=48	=48	=48	=48	=48	=48	=48
*k[b-e-]	*	*	*	*	*	*	*	*k[b-e-]	*	*	*
0r	.	&	.	1.e-	Et	.	Car	1.c	Et	.	Car
.	.	.	.	4d	.	.	la	4B-	.	.	la
.	.	.	.	4c	.	.	.	4A	.	.	.
=49	=49	=49	=49	=49	=49	=49	=49	=49	=49	=49	=49
0r	.	.	.	1d	tou-	.	bel-	1B-	tou-	.	bel-
.	.	.	.	1d	-tes-	.	-le est	1B-	-tes-	.	-le est
=50	=50	=50	=50	=50	=50	=50	=50	=50	=50	=50	=50
0r	.	.	.	1.c	-foix	.	ung	1.e-	-foix	.	ung
.	.	.	.	4B-	.	.	.	2f	.	.	.
.	.	.	.	4A	.	.	.	.	.	.	.
=51	=51	=51	=51	=51	=51	=51	=51	=51	=51	=51	=51
0r	.	.	.	2G	ne	.	chief	0g	ne	.	.
.	.	.	.	2A	.	.	.	.	.	.	.
.	.	.	.	2B-	.	.	.	.	.	.	.
.	.	.	.	2c	.	.	.	.	.	.	.
=52	=52	=52	=52	=52	=52	=52	=52	=52	=52	=52	=52
0r	.	.	.	2d	peult	.	.	1f	peult	.	chief
.	.	.	.	4c	.	.	.	.	.	.	.
.	.	.	.	4d	.	.	.	.	.	.	.
.	.	.	.	[1e-	a-	.	d'eupv-	1e-	a-	.	d'eupv-
=53	=53	=53	=53	=53	=53	=53	=53	=53	=53	=53	=53
0r	.	.	.	2e-]	.	.	.	0c	-voir	.	-re
.	.	.	.	2c	.	.	.	.	.	.	.
.	.	.	.	[1c	-voir	.	-re	.	.	.	.
=54	=54	=54	=54	=54	=54	=54	=54	=54	=54	=54	=54
0r	.	.	.	2c]	.	.	.	0d	mer-	.	sans
.	.	.	.	2Bni	.	.	.	.	.	.	.
.	.	.	.	2Bni	mer-	.	sans	.	.	.	.
.	.	.	.	2A	.	.	.	.	.	.	.
=55	=55	=55	=55	=55	=55	=55	=55	=55	=55	=55	=55
0C	Et	.	Car	0c	-cy,	.	cy,	1c	-cy,	.	cy,
.	.	.	.	.	.	.	.	[1e-	tou-	.	la
=56	=56	=56	=56	=56	=56	=56	=56	=56	=56	=56	=56
0G	tou-	.	la	0r	.	.	.	2e-]	.	.	.
.	.	.	.	.	.	.	.	2f	.	.	.
.	.	.	.	.	.	.	.	1g	-tes-	.	bel-
=57	=57	=57	=57	=57	=57	=57	=57	=57	=57	=57	=57
1A	-tes-	.	bel-	0r	.	.	.	2f	-foix	.	-le est
.	.	.	.	.	.	.	.	2e-	.	.	.
1B-	-foix	.	-le est	.	.	.	.	2d	ne	.	ung
.	.	.	.	.	.	.	.	2c	.	.	.
=58	=58	=58	=58	=58	=58	=58	=58	=58	=58	=58	=58
2G	ne	.	ung	0r	.	.	.	1B-	peult	.	chief
1E-	peult	.	chief	.	.	.	.	.	.	.	.
.	.	.	.	.	.	.	.	[1e-	a-	.	d'eupv-
2F	a-	.	d'eupv-	.	.	.	.	.	.	.	.
=59	=59	=59	=59	=59	=59	=59	=59	=59	=59	=59	=59
2G	-voir	.	-re	0r	.	.	.	2e-]	.	.	.
2A-i	.	.	.	.	.	.	.	2c	.	.	.
1F	mer-	.	sans	.	.	.	.	1d	.	.	.
=60	=60	=60	=60	=60	=60	=60	=60	=60	=60	=60	=60
0E-	-cy	.	cy	1.b-	mer-	.	sans	1e-	-voir	.	-re
.	.	.	.	.	.	.	.	[1b-	mer-	.	sans
.	.	.	.	2a-i	.	.	.	.	.	.	.
=61	=61	=61	=61	=61	=61	=61	=61	=61	=61	=61	=61
0r	.	.	.	2g	.	.	.	1b-]	.	.	.
.	.	.	.	2e-	.	.	.	.	.	.	.
.	.	.	.	1f	.	.	.	1a-i	.	.	.
=62	=62	=62	=62	=62	=62	=62	=62	=62	=62	=62	=62
1r	.	.	.	2e-	.	.	.	2g	.	.	.
.	.	.	.	1e-	.	.	.	2e-	.	.	.
1BB-	Na-	.	Et	.	.	.	.	1f	.	.	.
.	.	.	.	2d	.	.	.	.	.	.	.
=63	=63	=63	=63	=63	=63	=63	=63	=63	=63	=63	=63
1.E-	-le-	.	gist	[0e-	-cy	.	cy	0e-	-cy	.	cy
2F	-ge-	.	pour	.	.	.	.	.	.	.	.
=64	=64	=64	=64	=64	=64	=64	=64	=64	=64	=64	=64
0G	-ment	.	voir	1e-]	.	.	.	1r	.	.	.
.	.	.	.	2d	.	.	.	1b-	Na-	.	Et
.	.	.	.	2c	.	.	.	.	.	.	.
=65	=65	=65	=65	=65	=65	=65	=65	=65	=65	=65	=65
[0GG	.	.	.	0B-	.	.	.	1b-	-le-	.	gist
.	.	.	.	.	.	.	.	1b-	-ge-	.	pour
=66	=66	=66	=66	=66	=66	=66	=66	=66	=66	=66	=66
0GG]	.	.	.	1r	.	.	.	1g	-ment	.	voir
.	.	.	.	1B-	Na-	.	Et	[1b-	de	.	la
=67	=67	=67	=67	=67	=67	=67	=67	=67	=67	=67	=67
0BB-	de	.	la	1d	-le-	.	gist	2b-]	.	.	.
.	.	.	.	.	.	.	.	2a-i	.	.	.
.	.	.	.	1d	-ge-	.	pour	1f	sa	.	le
=68	=68	=68	=68	=68	=68	=68	=68	=68	=68	=68	=68
0C	sa	.	le	1e-	-ment	.	voir	1.e-	du-	.	com-
.	.	.	.	[1g	de	.	la	.	.	.	.
.	.	.	.	.	.	.	.	4d	.	.	.
.	.	.	.	.	.	.	.	4c	.	.	.
=69	=69	=69	=69	=69	=69	=69	=69	=69	=69	=69	=69
1r	.	.	.	2g]	.	.	.	1e-	.	.	.
.	.	.	.	4f	sa	.	le	.	.	.	.
.	.	.	.	4e-	.	.	.	.	.	.	.
[1B-	du-	.	com-	[1f	du-	.	com-	[1d	.	.	.
=70	=70	=70	=70	=70	=70	=70	=70	=70	=70	=70	=70
1B-]	.	.	.	2f]	.	.	.	2d]	.	.	.
.	.	.	.	2e-	.	.	.	2c	.	.	.
1c	.	.	.	1c	.	.	.	[1c	.	.	.
=71	=71	=71	=71	=71	=71	=71	=71	=71	=71	=71	=71
0G	.	.	.	0d	-re	.	-ble	1c]	.	.	.
.	.	.	.	.	.	.	.	1Bni	.	.	.
=72	=72	=72	=72	=72	=72	=72	=72	=72	=72	=72	=72
0A-i	-re	.	-ble	1r	.	.	.	0c	-re	.	-ble
.	.	.	.	1c	lan-	.	don-	.	.	.	.
=73	=73	=73	=73	=73	=73	=73	=73	=73	=73	=73	=73
0G	.	.	.	1B-	.	.	.	1r	.	.	.
.	.	.	.	[1e-	.	.	.	1g	lan-	.	don-
=74	=74	=74	=74	=74	=74	=74	=74	=74	=74	=74	=74
1C	lan-	.	don-	1e-]	.	.	.	2ani	.	.	.
.	.	.	.	.	.	.	.	1cc	.	.	.
2D	.	.	.	1d	.	.	.	.	.	.	.
2E-	.	.	.	.	.	.	.	2b-	.	.	.
=75	=75	=75	=75	=75	=75	=75	=75	=75	=75	=75	=75
1F	.	.	.	1c	.	.	.	2a	.	.	.
.	.	.	.	.	.	.	.	2g	.	.	.
1G	.	.	.	2B-	.	.	.	[1g	.	.	.
.	.	.	.	[2G	.	.	.	.	.	.	.
=76	=76	=76	=76	=76	=76	=76	=76	=76	=76	=76	=76
0D	.	.	.	2G]	.	.	.	2g]	.	.	.
.	.	.	.	2B-	.	.	.	2f#i	.	.	.
.	.	.	.	1A	.	.	.	2f#i	.	.	.
.	.	.	.	.	.	.	.	2eni	.	.	.
=77	=77	=77	=77	=77	=77	=77	=77	=77	=77	=77	=77
*^	*	*	*	*	*	*	*	*	*	*	*
0Gl	0GGl	-geur	.	-neur	0Gl	-geur	.	-neur	0gl	-geur	.	-neur
*v	*v	*	*	*	*	*	*	*	*	*	*	*
==	==	==	==	==	==	==	==	==	==	==	==
*-	*-	*-	*-	*-	*-	*-	*-	*-	*-	*-	*-
!!!RDF**kern: l=long note in original notation
!!!RDF**kern: i=editorial accidental
!!!RDF**kern: V=start of tuplet marker
!!!RDF**kern: Z=end of tuplet marker
!!!ENC: Jesse Rodin
!!!END: 2018/04/16/
!!!EED: Jesse Rodin
!!!EED2: David Burn
!!!EED3: Fabrice Fitch
!!!EED4: Adrian Armstrong
!!!EEV: 2018/07/24/
!!!ONB: Translated from MusicXML and edited on 2018/07/24/ by Craig Sapp
!!muse2ps: C^@{SMS} (@{folio})\nEd. @{EED}, with help from @{EED4}, @{EED2}, and @{EED3}^v105,105,120Q16z18l2600c75
